svgs/duotone/lasso-sparkles.svg

<svg xmlns="http://www.w3.org/2000/svg" viewBox="0 0 576 512"><!--! Font Awesome Pro 6.0.0-alpha3 by @fontawesome - https://fontawesome.com License - https://fontawesome.com/license (Commercial License) --><defs><style>.fa-secondary{opacity:.4}</style></defs><path class="fa-primary" d="M572.3 426l-49.64-20.7l-20.7-49.64C500.1 353.7 498.3 352 496 352c-2.277 0-4.943 1.65-5.959 3.693l-20.7 49.64l-49.64 20.7c-2.027 1.016-3.689 3.687-3.689 5.962c0 2.266 1.662 4.95 3.689 5.966l49.64 20.7l20.7 49.64C491.1 510.3 493.7 512 496 512c2.279 0 4.949-1.658 5.965-3.699l20.7-49.64l49.64-20.7C574.3 436.9 576 434.3 576 431.1C576 429.7 574.3 427.1 572.3 426zM412.3 74.04l-49.57-20.67l-20.77-49.67C340.9 1.652 338.3 0 336 0c-2.281 0-4.949 1.652-5.965 3.695l-20.7 49.63L259.7 74.04C257.7 75.05 256 77.72 256 79.99c.0039 2.262 1.654 4.957 3.68 5.971l49.57 20.67l20.77 49.67C331.1 158.3 333.7 160 336 160c2.277 0 4.943-1.656 5.959-3.699l20.7-49.63l49.65-20.71c2.027-1.014 3.676-3.693 3.68-5.955C415.1 77.73 414.3 75.05 412.3 74.04z"/><path class="fa-secondary" d="M576 181.3c0 101.8-126.5 181.4-288 181.4c-16.75 0-33.38-.875-50-2.625c4.876 14.75 7.126 30.12 6.751 45.63C243.8 464.8 194.4 512 135 512H48.03C39.15 512 32 504.9 32 496v-32C32 455.1 39.13 448 48 448h87c12.12 0 23.88-4.875 32.5-13.62C176 425.8 180.8 414 180.6 401.8c-.125-6-1-12.12-2.626-17.88C177.3 383.9 176.6 384 176 384C131.8 384 96 355.4 96 320c0-.875 .25-1.75 .25-2.625C92.38 315.3 88.5 313.1 85 311C30.25 277.1 0 231.1 0 181.3C0 79.63 126.5 0 288 0c2.977 0 5.847 .2174 8.798 .2702L284.9 28.89l-39.5 16.52C236 50.1 228.1 58.87 225.9 68.84C134.6 83.77 64 129.9 64 181.3c0 36.38 34.25 62.88 54.75 75.5c4.75 3 10.5 5.75 16 8.625C147.6 259.3 161.8 255.1 176 255.1c33.1 0 62.75 17.04 74.38 40.92C262.8 298 275.3 298.9 288 298.9c119.3 0 224-55 224-117.6c0-31.67-26.96-61.38-69.01-83.02C446 92.63 447.1 86.41 447.1 80c0-14.31-8.594-28.2-23.34-35.5l-37.5-15.56l-8.367-20.01C494.4 32.36 576 99.69 576 181.3z"/></svg>

<svg xmlns="http://www.w3.org/2000/svg" viewBox="0 0 576 512"><!-- Font Awesome Pro 6.0.0-alpha2 by @fontawesome - https://fontawesome.com License - https://fontawesome.com/license (Commercial License) --><defs><style>.fa-secondary{opacity:.4}</style></defs><path d="M576 181.25C576 283 449.5 362.625 288 362.625C271.25 362.625 254.625 361.75 237.999 360C242.875 374.75 245.125 390.125 244.75 405.625C243.75 464.75 194.375 512 135 512H48C39.125 512 32 504.875 32 496V464C32 455.125 39.125 448 48 448H135C147.125 448 158.875 443.125 167.5 434.375C176 425.75 180.75 414 180.625 401.75C180.5 395.75 179.625 389.625 177.999 383.875C177.25 383.875 176.625 384 176 384C131.75 384 96 355.375 96 320C96 319.125 96.25 318.25 96.25 317.375C92.375 315.25 88.5 313.125 85 311C30.25 277.125 0 231.125 0 181.25C0 79.625 126.5 0 288 0C290.977 0 293.848 0.219 296.799 0.271L284.875 28.891L245.375 45.406C236.02 50.096 228.98 58.865 225.855 68.838C134.613 83.766 64 129.949 64 181.25C64 217.625 98.25 244.125 118.75 256.75C123.5 259.75 129.25 262.5 134.75 265.375C147.625 259.25 161.75 256 176 256C209.999 256 238.75 273 250.375 296.875C262.75 298 275.25 298.875 288 298.875C407.25 298.875 512 243.875 512 181.25C512 149.58 485.039 119.871 442.988 98.232C446.035 92.629 447.969 86.408 447.969 80C447.969 65.688 439.375 51.797 424.625 44.5L387.125 28.938L378.781 8.975C494.436 32.408 576 99.691 576 181.25Z" class="fa-secondary"/><path d="M572.314 426.035L522.674 405.336L501.977 355.693C500.961 353.65 498.295 352 496.016 352C493.738 352 491.068 353.65 490.053 355.693L469.354 405.336L419.711 426.035C417.684 427.051 416.029 429.721 416.029 431.996C416.029 434.262 417.684 436.947 419.711 437.963L469.354 458.662L490.053 508.301C491.068 510.342 493.738 512 496.016 512C498.295 512 500.961 510.342 501.977 508.301L522.674 458.662L572.314 437.963C574.346 436.947 576 434.262 576 431.996C576 429.721 574.346 427.051 572.314 426.035ZM412.303 74.037L362.73 53.365L362.656 53.328L341.959 3.695C340.943 1.652 338.277 0 336 0C333.719 0 331.051 1.652 330.035 3.695L309.34 53.33L309.291 53.355L259.695 74.037C257.668 75.053 256.02 77.717 256.016 79.992L256 80L256.018 80.008C256.021 82.27 257.67 84.949 259.695 85.963L309.268 106.633L309.342 106.67L330.035 156.301C331.051 158.344 333.719 160 336 160C338.277 160 340.943 158.344 341.959 156.301L362.654 106.674L362.656 106.672L362.754 106.623L412.303 85.963C414.33 84.949 415.979 82.27 415.982 80.008L416 80L415.984 79.992C415.98 77.717 414.332 75.053 412.303 74.037Z" class="fa-primary"/></svg>
